X: 1
T: Piddellipom
M: 4/4
L: 1/8
R: highland fling
K: Amaj
E2 (3EFG A2A>c|B>AB>c B>AF<A|E2 (3EFG A2A>c|1 B>AB<c A2 (3AGF:|2 B>AB<c A2A>f||
a>fd>f f>ec>A|B>AB>c d>ef>g|a>fd>f f>ec>A|B>AB<c A2A>f|
a>fd>f f>ec>A|B>AB>c d>ef>g|a>a (3bag a>fe>c|B>AB<c A2 (3AGF||
